X:1
T:Title
%%score { ( 1 4 5 ) | ( 2 3 ) }
L:1/8
M:4/4
K:G
V:1 treble nm="Grand Piano"
V:4 treble 
V:5 treble 
V:2 bass 
V:3 bass 
V:1
 z4 z2[Q:1/4=100] D>D | [B,G]>[A,F] [B,G]>[CA] [DB]<[DB] [G,DG]>[G,DF] | %2
 [G,CE]>[G,EG] [G,DF]>[G,CE] [G,B,D]2 [B,D]>D | G>F G>A B<B B>c |[M:7/8] d>dc>B [DFA]3 | %5
[M:1/4] D>D |[M:4/4] [B,G]>[A,F] [B,G]>[CA] [DB]<[DB] [DG]>[DF] | [CE]>[EG] [DF]>[CE] [B,D]2 G>A | %8
[M:35/32] B>dc>ed/ B2- B/(3:2:4G3/2-G/4B3/4-B/8 | %9
[M:7/8] [DGB]3/2-[DGB]/4 z/4 [B,G]3/2-[B,G]/4 z/4 z z2 |[M:1/4] (3:2:2B2 c | %11
[M:4/4] z4 z/ d3/2- d/4 z/4 z/ z | %12
 (9:8:9[Fd]/[Fc]3/2 [Fc]2 [=FB]/ [^Fc]/-[Fc]3/2[FA]/-[FA]3/2[GB]/ | %13
 (5:4:5[Fc]2 [Fc]/ [=FB]/-[FB]3/2[^Fc]/ z4 |[M:7/8] z z/ B/ z2 =B3 |[M:1/4] (3:2:2D2 D | %16
[M:4/4] z4 z/ [DB]3/2- [DB]/4 z/4 z/ z | (5:4:5[CE]2 [EG]/ [DF]/-[DF]3/2[CE]/ z2 (3:2:2G2 A | %18
[M:35/32] z3/2 d3/4 z z/4 (3:2:8e3/4-e/8d3/8-d/16 z3/8 z/16 B3/4-B/8- B2 z3/4 B3/4 | %19
[M:15/8] [DGB]>[CFA][B,DG]-[B,DG]/[A,DF]/ [B,DG]2- [B,DG] z2 z6 |] %20
V:2
 z4 z2 D,2 | [G,,D,]>[G,,D,] [G,,D,]>[G,,D,] [G,,G,]<[G,,G,] B,,>B,, | z4 z2 G,2 | %3
 [G,B,D]>[G,A,D] [G,B,D]>[G,CD] [G,DG]<[G,DG] [G,DG]>[G,DG] | %4
[M:7/8] [B,DG]>[B,DG][A,DF]>[G,DG][K:bass] D,3 |[M:1/4] D,2 | %6
[M:4/4] [G,,D,]>[G,,D,] [G,,D,]>[G,,D,] [G,,G,]<[G,,G,] [B,,G,]>[B,,G,] | %7
 [C,G,]>[C,G,] [C,G,]>[C,G,] [G,,G,]2[K:treble] [G,B,D]>[G,CD] | %8
[M:35/32] [G,DG]>[G,B,G][G,CG]>[G,CG][G,B,G]/ [G,DG]2- [G,DG]/(3:2:4[G,B,D]3/2-[G,B,D]/4[G,DG]3/4-[G,DG]/8 | %9
[M:7/8][K:bass] z z z z/ D,/-D,/4 z/4 z/ z2 |[M:1/4][K:treble] (3:2:2[G,DG]2 [G,DG] | %11
[M:4/4] (5:4:5[G,B,G]2 [G,B,G]/ [G,_B,G]/-[G,B,G]3/2[G,=B,G]/ [G,CG]3/4 z/4 z (3:2:2[F,_B,D]2[K:bass] [G,D] | %12
 (9:8:9[D,B,]/[D,A,]3/2 [D,A,]2 [D,^G,]/ [D,A,]/-[D,A,]3/2[D,C]/-[D,C]3/2[D,B,]/ | %13
 z4 (5:4:5[D,A,]2 [D,A,]/ [D,D]/-[D,D]3/2[D,D]/ |[M:7/8][K:treble] z2 [G,G]>[G,G] [G,DG]3- | %15
[M:1/4] [G,DG]/4 z/4 z/ z |[M:4/4][K:bass] z4 z/ [G,,G,]3/2- [G,,G,]/4 z/4 z/ z | %17
 (5:4:5[C,G,]2 [C,G,]/ [C,G,]/-[C,G,]3/2[C,G,]/ z2 (3:2:2[G,B,D]2[K:treble] [G,CD] | %18
[M:35/32] D3/2-[G,-B,-DG-]/4[G,B,G]/ z z/4 (3:2:8[G,CG]3/4-[G,CG]/8[G,B,G]3/8-[G,B,G]/16 z3/8 z/16 [G,DG]3/4-[G,DG]/8-[G,DG]-[G,DG-]/<[B,-G]/B,/->[G,-B,D-G-]/[G,DG]/ | %19
[M:15/8][K:bass] D,>D,D,-D,/D,/ G,,2- G,, z2 z6 |] %20
V:3
 x8 | x8 | C,>C, C,>C, G,,2 z z/ B,/ | x8 |[M:7/8] x4[K:bass] x3 |[M:1/4] x2 |[M:4/4] x8 | %7
 x6[K:treble] x2 |[M:35/32] x35/4 |[M:7/8][K:bass] D,>D, D,2 G,,3 |[M:1/4][K:treble] x2 | %11
[M:4/4] z4 z/ [G,B,G]3/2- [G,B,G]/4 z/4 z/ z[K:bass] | x481/60 | %13
 (5:4:5[D,A,]2 [D,A,]/ [D,^G,]/-[D,G,]3/2[D,A,]/ z4 | %14
[M:7/8][K:treble] [G,D]>[G,DG]D3/2-[^C-D]/4C/4-C/4 z/4 z/ z2 |[M:1/4] D,2 | %16
[M:4/4][K:bass] (5:4:5[G,,D,]2 [G,,D,]/ [G,,D,]/-[G,,D,]3/2[G,,D,]/ [G,,G,]3/4 z/4 z (3:2:2[B,,G,]2 [B,,G,] | %17
 z4 [G,,G,]2- [G,,G,]/4 z/4 z/ z[K:treble] | %18
[M:35/32] [G,G]2 [G,CG]3/2-[G,CG]/4 z2 z3/4 [G,D]2 z/4 |[M:15/8][K:bass] x15 |] %20
V:4
 x8 | x8 | x8 | x8 |[M:7/8] x7 |[M:1/4] x2 |[M:4/4] x8 | x8 |[M:35/32] x35/4 | %9
[M:7/8] z z/ [CFA]/-[CFA]/4 z/4 z/ z/ D/ z z2 |[M:1/4] x2 | %11
[M:4/4] (5:4:5d2 d/ ^c/-c3/2d/ e3/4 z/4 z (3:2:2=c2 B | x481/60 | %13
 z4 (5:4:5[Fd]2 [Fc]/ [FB]/-[FB]3/2[FA]/ |[M:7/8] [Ac]3/2-[Ac]/4 z/4 B3/2-B/4 z/4 z z2 | %15
[M:1/4] x2 |[M:4/4] (5:4:5[B,G]2 [A,F]/ [B,G]/-[B,G]3/2[CA]/ [DB]3/4 z/4 z (3:2:2[DG]2 [DF] | %17
 z4 [B,D]2- [B,D]/4 z/4 z/ z |[M:35/32] B3/2-B/4 z/4 c3/2-c/4 z2 z3/4 G3/2-G/4 z/ |[M:15/8] x15 |] %20
V:5
 x8 | x8 | x8 | x8 |[M:7/8] x7 |[M:1/4] x2 |[M:4/4] x8 | x8 |[M:35/32] x35/4 | %9
[M:7/8] z2 D>[A,F]-[A,B,-D-FG-]/<[B,DG]/- [B,DG]2 |[M:1/4] x2 |[M:4/4] x8 | x481/60 | x8 | %14
[M:7/8] z z z z/ _B/-B/4 z/4 z/ z2 |[M:1/4] x2 |[M:4/4] x8 | x8 |[M:35/32] x35/4 |[M:15/8] x15 |] %20

